X: 35096
T: Rolling Waves, The
R: jig
M: 6/8
K: Dmajor
A|:FEF DED D2d cAG|FEF FED A2F GFE|
FEF DED D2d cAG|FAF GBG A2F GFE:|
D2d cAd cAd cAG|F2d cAd A2F GFE|
[1D2d cAc ded cAG|FAF GBG A2F GFE:|
[2D2d cAd fed cAG|FAF GBG A2F GFE||

